Numix/22/emotes/face-uncertain.svg

<?xml version="1.0" encoding="UTF-8" standalone="no"?>
<svg
   xmlns:dc="http://purl.org/dc/elements/1.1/"
   xmlns:cc="http://creativecommons.org/ns#"
   xmlns:rdf="http://www.w3.org/1999/02/22-rdf-syntax-ns#"
   xmlns:svg="http://www.w3.org/2000/svg"
   xmlns="http://www.w3.org/2000/svg"
   xmlns:sodipodi="http://sodipodi.sourceforge.net/DTD/sodipodi-0.dtd"
   xmlns:inkscape="http://www.inkscape.org/namespaces/inkscape"
   width="22px"
   height="22px"
   viewBox="0 0 18 18"
   version="1.1"
   id="svg1875"
   inkscape:version="0.91 r"
   sodipodi:docname="face-uncertain.svg">
  <metadata
     id="metadata1890">
    <rdf:RDF>
      <cc:Work
         rdf:about="">
        <dc:format>image/svg+xml</dc:format>
        <dc:type
           rdf:resource="http://purl.org/dc/dcmitype/StillImage" />
      </cc:Work>
    </rdf:RDF>
  </metadata>
  <defs
     id="defs1888" />
  <sodipodi:namedview
     pagecolor="#ffffff"
     bordercolor="#666666"
     borderopacity="1"
     objecttolerance="10"
     gridtolerance="10"
     guidetolerance="10"
     inkscape:pageopacity="0"
     inkscape:pageshadow="2"
     inkscape:window-width="640"
     inkscape:window-height="480"
     id="namedview1886" />
  <g
     id="surface1">
    <path
       style=" stroke:none;fill-rule:nonzero;fill:rgb(100%,85.490196%,36.862745%);fill-opacity:1;"
       d="M 15.75 9 C 15.75 12.210938 12.726562 14.8125 9 14.8125 C 5.273438 14.8125 2.25 12.210938 2.25 9 C 2.25 5.789062 5.273438 3.1875 9 3.1875 C 12.726562 3.1875 15.75 5.789062 15.75 9 Z M 15.75 9 "
       id="path1878" />
    <path
       style=" stroke:none;fill-rule:nonzero;fill:rgb(39.607843%,39.607843%,39.607843%);fill-opacity:1;"
       d="M 7.445312 7.058594 L 5.835938 7.492188 C 5.820312 7.554688 5.8125 7.621094 5.8125 7.6875 C 5.8125 8.207031 6.230469 8.625 6.75 8.625 C 7.269531 8.625 7.6875 8.207031 7.6875 7.6875 C 7.6875 7.457031 7.601562 7.230469 7.445312 7.058594 Z M 7.445312 7.058594 "
       id="path1880" />
    <path
       style=" stroke:none;fill-rule:nonzero;fill:rgb(39.607843%,39.607843%,39.607843%);fill-opacity:1;"
       d="M 12.1875 7.6875 C 12.1875 8.207031 11.769531 8.625 11.25 8.625 C 10.730469 8.625 10.3125 8.207031 10.3125 7.6875 C 10.3125 7.167969 10.730469 6.75 11.25 6.75 C 11.769531 6.75 12.1875 7.167969 12.1875 7.6875 Z M 12.1875 7.6875 "
       id="path1882" />
    <path
       style="fill:none;stroke-width:1.5;stroke-linecap:butt;stroke-linejoin:miter;stroke:rgb(39.607843%,39.607843%,39.607843%);stroke-opacity:1;stroke-miterlimit:4;"
       d="M 18.885417 30 C 18.739583 29.260417 18.96875 28.46875 19.46875 27.90625 C 19.75 27.59375 20.125 27.364583 20.520833 27.21875 C 20.916667 27.072917 21.34375 27.010417 21.770833 27.020833 C 22.604167 27.052083 23.427083 27.364583 24.083333 27.895833 C 24.802083 28.46875 25.302083 29.270833 25.90625 29.979167 C 26.5 30.677083 27.208333 31.291667 28.052083 31.65625 C 28.625 31.895833 29.260417 32.010417 29.885417 31.989583 "
       transform="matrix(0.375,0,0,0.375,0,0)"
       id="path1884" />
  </g>
</svg>

<svg xmlns="http://www.w3.org/2000/svg" width="22" height="22" viewBox="0 0 18 18">
 <g>
  <path d="m 15.75 9 c 0 3.211 -3.02 5.813 -6.75 5.813 c -3.727 0 -6.75 -2.602 -6.75 -5.813 c 0 -3.211 3.02 -5.813 6.75 -5.813 c 3.727 0 6.75 2.602 6.75 5.813 m 0 0" style="fill:#ffd95d;fill-opacity:1;stroke:none;fill-rule:nonzero"/>
  <path d="m 7.445 7.06 l -1.609 0.434 c -0.016 0.063 -0.023 0.129 -0.023 0.195 c 0 0.52 0.418 0.938 0.938 0.938 c 0.52 0 0.938 -0.418 0.938 -0.938 c 0 -0.23 -0.086 -0.457 -0.242 -0.629 m 0 0" style="fill:#646464;fill-opacity:1;stroke:none;fill-rule:nonzero"/>
  <path d="m 12.188 7.688 c 0 0.52 -0.418 0.938 -0.938 0.938 c -0.52 0 -0.938 -0.418 -0.938 -0.938 c 0 -0.52 0.418 -0.938 0.938 -0.938 c 0.52 0 0.938 0.418 0.938 0.938 m 0 0" style="fill:#646464;fill-opacity:1;stroke:none;fill-rule:nonzero"/>
  <path d="m 18.885 30 c -0.146 -0.74 0.083 -1.531 0.583 -2.094 c 0.281 -0.313 0.656 -0.542 1.052 -0.688 c 0.396 -0.146 0.823 -0.208 1.25 -0.198 c 0.833 0.031 1.656 0.344 2.313 0.875 c 0.719 0.573 1.219 1.375 1.823 2.083 c 0.594 0.698 1.302 1.313 2.146 1.677 c 0.573 0.24 1.208 0.354 1.833 0.333" transform="matrix(0.375,0,0,0.375,0,0)" style="stroke-opacity:1;fill:none;stroke-miterlimit:4;stroke:#646464;stroke-linecap:butt;stroke-linejoin:miter;stroke-width:1.5"/>
 </g>
</svg>
